src/assets/icons/halloween-itbkk-logo.svg

<svg width="16" height="16" viewBox="0 0 16 16" fill="none" xmlns="http://www.w3.org/2000/svg">
<path fill-rule="evenodd" clip-rule="evenodd" d="M11 3.72C12 3.23996 14.5 4.2 15 4.68C15.0788 4.75568 15.1577 4.8075 15.2345 4.85803C15.6452 5.12796 16 5.36114 16 9C16 12.6388 15.6451 12.872 15.2344 13.142C15.1575 13.1925 15.0787 13.2443 14.9998 13.32C14.4998 13.8 11.9998 14.76 10.9998 14.28C9.99966 14.7601 8.99949 15.0001 7.99931 15C6.99913 15.0001 5.99993 14.7601 4.99976 14.28C3.99976 14.76 1.49976 13.8 0.999758 13.32C0.920932 13.2443 0.842112 13.1925 0.765256 13.142C0.354604 12.872 0 12.6389 0 9C0 5.36114 0.354759 5.12796 0.765454 4.85803C0.842329 4.8075 0.921165 4.75568 1 4.68C1.5 4.2 4 3.23996 5 3.72C6.00018 3.23993 7.00035 2.99993 8.00053 3C9.0007 2.99993 9.99982 3.23993 11 3.72ZM4.74933 5.89795C4.74933 5.40435 4.35773 5.00421 3.87467 5.00421C3.3916 5.00421 3 5.40435 3 5.89795V12.1058C3 12.5994 3.3916 12.9995 3.87467 12.9995C4.35773 12.9995 4.74933 12.5994 4.74933 12.1058V11.1475L6.30608 12.7382C6.64766 13.0873 7.20146 13.0873 7.54304 12.7382C7.88462 12.3892 7.88462 11.8233 7.54304 11.4743L5.12155 8.99999L7.54304 6.52571C7.88462 6.17668 7.88462 5.6108 7.54304 5.26177C7.20146 4.91274 6.64766 4.91274 6.30608 5.26177L4.74933 6.85246V5.89795ZM11.2507 12.1021C11.2507 12.5957 11.6423 12.9958 12.1253 12.9958C12.6084 12.9958 13 12.5957 13 12.1021V5.89425C13 5.40065 12.6084 5.00051 12.1253 5.00051C11.6423 5.00051 11.2507 5.40065 11.2507 5.89425V6.85246L9.69394 5.26178C9.35237 4.91275 8.79854 4.91275 8.45696 5.26178C8.11538 5.6108 8.11538 6.17668 8.45696 6.52571L10.8785 9L8.45696 11.4743C8.11538 11.8233 8.11538 12.3892 8.45696 12.7382C8.79854 13.0873 9.35237 13.0873 9.69394 12.7382L11.2507 11.1475V12.1021Z" fill="#F04C1C"/>
<path d="M8.5 2.50004C8.10828 2.4386 7.892 2.43316 7.5 2.50004L8 0.5C8.6298 0.308439 9.5 0.499983 9.5 1.00004C9.5 1.50009 8.5 2.50004 8.5 2.50004Z" fill="#F04C1C"/>
</svg>

<svg xmlns="http://www.w3.org/2000/svg" width="16" height="16" fill="none"><path fill="#F04C1C" fill-rule="evenodd" d="M11 3.72c1-.48 3.5.48 4 .96.08.08.16.13.23.18.42.27.77.5.77 4.14 0 3.64-.35 3.87-.77 4.14-.07.05-.15.1-.23.18-.5.48-3 1.44-4 .96-1 .48-2 .72-3 .72s-2-.24-3-.72c-1 .48-3.5-.48-4-.96a1.53 1.53 0 0 0-.23-.18C.35 12.87 0 12.64 0 9c0-3.64.35-3.87.77-4.14.07-.05.15-.1.23-.18.5-.48 3-1.44 4-.96C6 3.24 7 3 8 3s2 .24 3 .72ZM4.75 5.9c0-.5-.4-.9-.88-.9S3 5.4 3 5.9v6.2c0 .5.4.9.87.9.49 0 .88-.4.88-.9v-.95l1.56 1.59c.34.35.9.35 1.23 0a.9.9 0 0 0 0-1.27L5.12 9l2.42-2.47a.9.9 0 0 0 0-1.27.86.86 0 0 0-1.23 0l-1.56 1.6V5.9Zm6.5 6.2c0 .5.4.9.88.9s.87-.4.87-.9V5.9c0-.5-.4-.9-.87-.9-.49 0-.88.4-.88.9v.95L9.7 5.26a.86.86 0 0 0-1.23 0 .9.9 0 0 0 0 1.27L10.88 9l-2.42 2.47a.9.9 0 0 0 0 1.27c.34.35.9.35 1.23 0l1.56-1.6v.96Z" clip-rule="evenodd"/><path fill="#F04C1C" d="M8.5 2.5c-.4-.06-.6-.07-1 0l.5-2c.63-.2 1.5 0 1.5.5s-1 1.5-1 1.5Z"/></svg>
